assets/icons/standard/photo.svg

<?xml version="1.0"?><svg xmlns="http://www.w3.org/2000/svg" width="100" height="100" viewBox="0 0 100 100"><path fill="#fff" d="m36 31h28c0.8 0 1.3-0.9 0.8-1.5l-3.3-5.1c-1-2-3.1-3.3-5.4-3.3h-12.2c-2.3 0-4.4 1.3-5.4 3.3l-3.3 5.1c-0.5 0.6 0 1.5 0.8 1.5z m14 18c-4.4 0-8 3.6-8 8s3.6 8 8 8 8-3.6 8-8-3.6-8-8-8z m24-12h-48c-3.3 0-6 2.7-6 6v28c0 3.3 2.7 6 6 6h48c3.3 0 6-2.7 6-6v-28c0-3.3-2.7-6-6-6z m-24 34c-7.7 0-14-6.3-14-14s6.3-14 14-14 14 6.3 14 14-6.3 14-14 14z"></path></svg>

<svg xmlns="http://www.w3.org/2000/svg" x="0px" y="0px" width="100" height="100"
	 viewBox="0 0 100 100" style="enable-background:new 0 0 100 100;" xml:space="preserve">

<g>
	<g>
		<path fill="#FFFFFF" d="M36,31h28c0.8,0,1.3-0.9,0.8-1.5l-3.3-5.1c-1-2-3.1-3.3-5.4-3.3H43.9c-2.3,0-4.4,1.3-5.4,3.3l-3.3,5.1
			C34.7,30.1,35.2,31,36,31z"/>
	</g>
	<g>
		<path fill="#FFFFFF" d="M50,49c-4.4,0-8,3.6-8,8s3.6,8,8,8s8-3.6,8-8S54.4,49,50,49z"/>
	</g>
	<g>
		<path fill="#FFFFFF" d="M74,37H26c-3.3,0-6,2.7-6,6v28c0,3.3,2.7,6,6,6h48c3.3,0,6-2.7,6-6V43C80,39.7,77.3,37,74,37z M50,71
			c-7.7,0-14-6.3-14-14s6.3-14,14-14c7.7,0,14,6.3,14,14S57.7,71,50,71z"/>
	</g>
</g>
</svg>
